public/img/decorations/deco-blob-15.svg

<svg width="106" height="83" viewBox="0 0 106 83" fill="none" xmlns="http://www.w3.org/2000/svg">
<path d="M13.7988 0.365028C16.1838 0.102028 18.4298 0.582024 20.6228 1.42902C23.3088 2.46502 25.9628 3.56005 28.4588 5.00605C28.5288 5.04605 28.5958 5.09404 28.6678 5.12504C32.6268 6.76604 35.8728 9.53404 39.3828 11.888C41.6328 13.399 43.9028 14.8801 46.1618 16.3771C48.3588 17.8331 50.5758 19.258 52.7438 20.757C56.3048 23.22 60.1578 25.167 63.9428 27.237C68.0068 29.461 72.1268 31.592 75.7788 34.497C77.4958 35.863 78.9488 37.413 79.8488 39.441C80.1398 40.098 80.5478 40.711 80.7828 41.385C81.8788 44.543 84.1598 46.7781 86.6028 48.8641C88.6068 50.5741 90.7068 52.175 92.7438 53.847C93.2318 54.249 93.6738 54.72 94.0918 55.199C95.8238 57.183 97.5818 59.148 99.2458 61.188C100.557 62.795 101.939 64.395 102.939 66.193C104.337 68.705 105.363 71.4081 105.386 74.3771C105.402 76.3871 104.782 78.159 103.468 79.665C102.786 80.445 102.05 81.1871 101.28 81.8811C100.376 82.6971 99.3108 82.905 98.1588 82.426C93.8798 80.647 89.6528 78.842 85.9988 75.827C81.8078 72.369 77.2258 69.421 72.6378 66.504C70.2828 65.006 67.9268 63.5041 65.5738 62.0021C65.3038 61.8301 65.0538 61.623 64.7688 61.483C62.0418 60.152 59.3468 58.754 56.5698 57.536C54.6028 56.674 52.5268 56.0581 50.4998 55.3341C49.8978 55.1191 49.2618 54.972 48.6988 54.679C46.6458 53.606 44.6168 52.487 42.5838 51.379C41.6018 50.844 40.6598 50.224 39.6458 49.76C36.5888 48.364 33.6398 46.783 30.7438 45.081C28.2668 43.627 25.6888 42.344 23.1348 41.029C20.4058 39.626 18.1838 37.535 15.7718 35.702C15.3908 35.412 15.0878 35.016 14.6918 34.754C10.6198 32.06 7.60984 28.297 4.72084 24.491C2.69384 21.821 1.17182 18.7171 0.566816 15.3901C-0.117184 11.6411 0.0058291 7.90504 2.40483 4.58604C3.53383 3.02604 4.95984 1.97405 6.75484 1.37605C9.04684 0.613045 11.3808 0.104028 13.7988 0.365028ZM93.7148 57.346C93.5548 57.604 93.3628 57.825 93.2868 58.08C93.2638 58.157 93.5548 58.329 93.7008 58.457C93.8438 58.215 94.0058 57.978 94.1148 57.722C94.1348 57.679 93.9278 57.54 93.7148 57.346Z" fill="black"/>
</svg>

<svg width="106" height="83" fill="none" xmlns="http://www.w3.org/2000/svg"><path d="M13.799.365c2.385-.263 4.63.217 6.824 1.064 2.686 1.036 5.34 2.131 7.836 3.577.07.04.137.088.209.119 3.959 1.641 7.205 4.409 10.715 6.763 2.25 1.511 4.52 2.992 6.779 4.49 2.197 1.455 4.414 2.88 6.582 4.379 3.56 2.463 7.414 4.41 11.199 6.48 4.064 2.224 8.184 4.355 11.836 7.26 1.717 1.366 3.17 2.916 4.07 4.944.29.657.699 1.27.934 1.944 1.096 3.158 3.377 5.393 5.82 7.48 2.004 1.71 4.104 3.31 6.14 4.982.489.402.93.873 1.349 1.352 1.732 1.984 3.49 3.949 5.154 5.989 1.311 1.607 2.693 3.207 3.693 5.005 1.398 2.512 2.424 5.215 2.447 8.184.016 2.01-.604 3.782-1.918 5.288a26.297 26.297 0 01-2.188 2.216c-.904.816-1.97 1.024-3.121.545-4.28-1.779-8.506-3.584-12.16-6.599-4.191-3.458-8.773-6.406-13.361-9.323-2.355-1.498-4.711-3-7.064-4.502-.27-.172-.52-.379-.805-.519-2.727-1.331-5.422-2.729-8.2-3.947-1.966-.862-4.042-1.478-6.07-2.202-.601-.215-1.237-.362-1.8-.655-2.053-1.073-4.082-2.192-6.115-3.3-.982-.535-1.924-1.155-2.938-1.619-3.057-1.396-6.006-2.977-8.902-4.679-2.477-1.454-5.055-2.737-7.61-4.052-2.728-1.403-4.95-3.494-7.362-5.327-.381-.29-.684-.686-1.08-.948C10.62 32.06 7.61 28.297 4.72 24.491c-2.027-2.67-3.55-5.774-4.154-9.1-.684-3.75-.561-7.486 1.838-10.805 1.129-1.56 2.555-2.612 4.35-3.21C9.047.613 11.38.104 13.799.365zm79.916 56.981c-.16.258-.352.479-.428.734-.023.077.268.249.414.377.143-.242.305-.479.414-.735.02-.043-.187-.182-.4-.376z" fill="#000"/></svg>
